wp-content/uploads/stamp06.svg

<?xml version="1.0" encoding="UTF-8"?> <svg xmlns="http://www.w3.org/2000/svg" width="187" height="23" viewBox="0 0 187 23" fill="none"><rect width="187" height="23" rx="5" fill="#032538"></rect><path d="M11.552 14.92V13.576L17.76 11.496V11.304L11.552 9.224V7.88L18.24 10.184V12.616L11.552 14.92ZM30.3298 5.8H32.8898L34.3938 16.424H34.5858L36.0898 5.8H38.6498V17H37.4018V6.376H37.2098L35.7058 17H33.2738L31.7698 6.376H31.5778V17H30.3298V5.8ZM40.3506 10.152C40.3506 8.70133 40.6973 7.576 41.3906 6.776C42.084 5.976 43.0493 5.576 44.2866 5.576C45.524 5.576 46.4893 5.976 47.1826 6.776C47.876 7.576 48.2226 8.70133 48.2226 10.152V12.648C48.2226 14.1413 47.876 15.2773 47.1826 16.056C46.4893 16.8347 45.524 17.224 44.2866 17.224C43.0493 17.224 42.084 16.8347 41.3906 16.056C40.6973 15.2773 40.3506 14.1413 40.3506 12.648V10.152ZM44.2866 15.976C45.1506 15.976 45.796 15.6827 46.2226 15.096C46.66 14.4987 46.8786 13.6507 46.8786 12.552V10.248C46.8786 9.224 46.66 8.39733 46.2226 7.768C45.796 7.13867 45.1506 6.824 44.2866 6.824C43.4226 6.824 42.772 7.13867 42.3346 7.768C41.908 8.39733 41.6946 9.224 41.6946 10.248V12.552C41.6946 13.6507 41.908 14.4987 42.3346 15.096C42.772 15.6827 43.4226 15.976 44.2866 15.976ZM50.0995 15.752H51.0595V7.048H50.0995V5.8H54.6275C55.1608 5.8 55.6302 5.87467 56.0355 6.024C56.4515 6.17333 56.7982 6.376 57.0755 6.632C57.3635 6.888 57.5768 7.19733 57.7155 7.56C57.8648 7.912 57.9395 8.296 57.9395 8.712V8.904C57.9395 9.21333 57.8915 9.496 57.7955 9.752C57.6995 10.008 57.5662 10.2373 57.3955 10.44C57.2248 10.6427 57.0222 10.8187 56.7875 10.968C56.5635 11.1067 56.3182 11.2133 56.0515 11.288V11.48C56.5848 11.6293 57.0328 11.9173 57.3955 12.344C57.7582 12.76 57.9395 13.272 57.9395 13.88V14.072C57.9395 14.488 57.8648 14.8773 57.7155 15.24C57.5768 15.592 57.3635 15.9013 57.0755 16.168C56.7982 16.424 56.4515 16.6267 56.0355 16.776C55.6302 16.9253 55.1608 17 54.6275 17H50.0995V15.752ZM52.4035 15.752H54.5315C55.1608 15.752 55.6728 15.5973 56.0675 15.288C56.4622 14.968 56.6595 14.5307 56.6595 13.976V13.88C56.6595 13.304 56.4728 12.8507 56.0995 12.52C55.7262 12.1787 55.2195 12.008 54.5795 12.008H52.4035V15.752ZM52.4035 10.76H54.5795C55.2195 10.76 55.7262 10.5947 56.0995 10.264C56.4728 9.93333 56.6595 9.48 56.6595 8.904V8.808C56.6595 8.264 56.4622 7.83733 56.0675 7.528C55.6728 7.208 55.1608 7.048 54.5315 7.048H52.4035V10.76ZM60.3284 5.8H67.4324V7.048H64.5524V15.752H67.4324V17H60.3284V15.752H63.2084V7.048H60.3284V5.8ZM70.1733 5.8H71.5173V15.752H77.3733V17H70.1733V5.8ZM80.0821 5.8H86.8661V7.048H81.4261V10.76H86.7701V12.008H81.4261V15.752H86.9621V17H80.0821V5.8ZM90.871 12.264H95.671V13.416H90.871V12.264ZM99.6919 5.8H106.572V7.048H101.036V10.76H106.476V12.008H101.036V17H99.6919V5.8ZM116.369 17H115.025V13.256C115.025 12.9787 114.961 12.7653 114.833 12.616C114.705 12.4667 114.481 12.392 114.161 12.392H110.673V17H109.329V5.8H113.329C113.905 5.8 114.406 5.88533 114.833 6.056C115.259 6.216 115.611 6.43467 115.889 6.712C116.177 6.98933 116.39 7.31467 116.529 7.688C116.678 8.05067 116.753 8.43467 116.753 8.84V9.32C116.753 9.736 116.635 10.152 116.401 10.568C116.177 10.984 115.825 11.304 115.345 11.528V11.72C115.665 11.7733 115.915 11.9013 116.097 12.104C116.278 12.3067 116.369 12.5947 116.369 12.968V17ZM110.673 11.144H113.169C113.926 11.144 114.486 10.984 114.849 10.664C115.222 10.3333 115.409 9.85333 115.409 9.224V8.936C115.409 8.37067 115.222 7.91733 114.849 7.576C114.486 7.224 113.926 7.048 113.169 7.048H110.673V11.144ZM119.11 5.8H126.214V7.048H123.334V15.752H126.214V17H119.11V15.752H121.99V7.048H119.11V5.8ZM129.067 5.8H135.851V7.048H130.411V10.76H135.755V12.008H130.411V15.752H135.947V17H129.067V5.8ZM144.447 16.424H144.639V5.8H145.983V17H143.295L140.063 6.376H139.871V17H138.527V5.8H141.215L144.447 16.424ZM148.324 5.8H152.004C153.391 5.8 154.404 6.13067 155.044 6.792C155.684 7.45333 156.004 8.50933 156.004 9.96V12.84C156.004 14.2907 155.684 15.3467 155.044 16.008C154.404 16.6693 153.391 17 152.004 17H148.324V15.736H149.284V7.048H148.324V5.8ZM151.812 15.752C152.303 15.752 152.724 15.704 153.076 15.608C153.439 15.512 153.738 15.352 153.972 15.128C154.207 14.8933 154.378 14.584 154.484 14.2C154.602 13.816 154.66 13.3307 154.66 12.744V10.056C154.66 9.46933 154.602 8.984 154.484 8.6C154.378 8.216 154.207 7.912 153.972 7.688C153.738 7.45333 153.439 7.288 153.076 7.192C152.724 7.096 152.303 7.048 151.812 7.048H150.628V15.752H151.812ZM158.345 5.8H159.689V15.752H165.545V17H158.345V5.8ZM170.974 13.064H170.686L167.182 5.8H168.686L171.55 11.912H171.742L174.606 5.8H176.11L172.606 13.064H172.318V17H170.974V13.064Z" fill="#FF6E6E"></path></svg>

<svg xmlns="http://www.w3.org/2000/svg" width="187" height="23" fill="none"><rect width="187" height="23" fill="#032538" rx="5"/><path fill="#FF6E6E" d="M11.552 14.92v-1.344l6.208-2.08v-.192l-6.208-2.08V7.88l6.688 2.304v2.432l-6.688 2.304ZM30.33 5.8h2.56l1.504 10.624h.192L36.09 5.8h2.56V17h-1.248V6.376h-.192L35.706 17h-2.432L31.77 6.376h-.192V17H30.33V5.8Zm10.02 4.352c0-1.45.347-2.576 1.04-3.376.694-.8 1.66-1.2 2.897-1.2 1.237 0 2.202.4 2.896 1.2.693.8 1.04 1.925 1.04 3.376v2.496c0 1.493-.347 2.63-1.04 3.408-.694.779-1.659 1.168-2.896 1.168-1.238 0-2.203-.39-2.896-1.168-.694-.779-1.04-1.915-1.04-3.408v-2.496Zm3.937 5.824c.864 0 1.509-.293 1.936-.88.437-.597.656-1.445.656-2.544v-2.304c0-1.024-.219-1.85-.656-2.48-.427-.63-1.072-.944-1.936-.944-.864 0-1.515.315-1.952.944-.427.63-.64 1.456-.64 2.48v2.304c0 1.099.213 1.947.64 2.544.437.587 1.088.88 1.952.88Zm5.813-.224h.96V7.048h-.96V5.8h4.527c.534 0 1.003.075 1.408.224.417.15.763.352 1.04.608.288.256.502.565.64.928.15.352.224.736.224 1.152v.192a2.328 2.328 0 0 1-.544 1.536 2.642 2.642 0 0 1-1.344.848v.192c.534.15.982.437 1.344.864.363.416.544.928.544 1.536v.192c0 .416-.074.805-.224 1.168a2.504 2.504 0 0 1-.64.928 3.01 3.01 0 0 1-1.04.608c-.405.15-.874.224-1.407.224h-4.529v-1.248Zm2.303 0h2.129c.629 0 1.14-.155 1.536-.464.394-.32.592-.757.592-1.312v-.096c0-.576-.187-1.03-.56-1.36-.374-.341-.88-.512-1.52-.512h-2.176v3.744Zm0-4.992h2.177c.64 0 1.146-.165 1.52-.496.373-.33.56-.784.56-1.36v-.096c0-.544-.198-.97-.592-1.28-.395-.32-.907-.48-1.536-.48h-2.128v3.712Zm7.925-4.96h7.104v1.248h-2.88v8.704h2.88V17h-7.104v-1.248h2.88V7.048h-2.88V5.8Zm9.845 0h1.344v9.952h5.856V17h-7.2V5.8Zm9.91 0h6.783v1.248h-5.44v3.712h5.344v1.248h-5.344v3.744h5.536V17h-6.88V5.8Zm10.788 6.464h4.8v1.152h-4.8v-1.152Zm8.82-6.464h6.881v1.248h-5.536v3.712h5.44v1.248h-5.44V17h-1.344V5.8ZM116.37 17h-1.344v-3.744c0-.277-.064-.49-.192-.64-.128-.15-.352-.224-.672-.224h-3.488V17h-1.344V5.8h4c.576 0 1.077.085 1.504.256.426.16.778.379 1.056.656.288.277.501.603.64.976.149.363.224.747.224 1.152v.48c0 .416-.118.832-.352 1.248-.224.416-.576.736-1.056.96v.192c.32.053.57.181.752.384.181.203.272.49.272.864V17Zm-5.696-5.856h2.496c.757 0 1.317-.16 1.68-.48.373-.33.56-.81.56-1.44v-.288c0-.565-.187-1.019-.56-1.36-.363-.352-.923-.528-1.68-.528h-2.496v4.096ZM119.11 5.8h7.104v1.248h-2.88v8.704h2.88V17h-7.104v-1.248h2.88V7.048h-2.88V5.8Zm9.957 0h6.784v1.248h-5.44v3.712h5.344v1.248h-5.344v3.744h5.536V17h-6.88V5.8Zm15.38 10.624h.192V5.8h1.344V17h-2.688l-3.232-10.624h-.192V17h-1.344V5.8h2.688l3.232 10.624ZM148.324 5.8h3.68c1.387 0 2.4.33 3.04.992.64.661.96 1.717.96 3.168v2.88c0 1.45-.32 2.507-.96 3.168-.64.661-1.653.992-3.04.992h-3.68v-1.264h.96V7.048h-.96V5.8Zm3.488 9.952c.491 0 .912-.048 1.264-.144.363-.096.662-.256.896-.48.235-.235.406-.544.512-.928.118-.384.176-.87.176-1.456v-2.688c0-.587-.058-1.072-.176-1.456-.106-.384-.277-.688-.512-.912a1.935 1.935 0 0 0-.896-.496 4.849 4.849 0 0 0-1.264-.144h-1.184v8.704h1.184Zm6.533-9.952h1.344v9.952h5.856V17h-7.2V5.8Zm12.629 7.264h-.288L167.182 5.8h1.504l2.864 6.112h.192l2.864-6.112h1.504l-3.504 7.264h-.288V17h-1.344v-3.936Z"/></svg>
